svgs/sharp-light/filters.svg

<svg xmlns="http://www.w3.org/2000/svg" viewBox="0 0 640 512"><!--! Font Awesome Pro 6.6.0 by @fontawesome - https://fontawesome.com License - https://fontawesome.com/license (Commercial License) Copyright 2024 Fonticons, Inc. --><path d="M384 256l0 112 64 48 0-160 0-13.3 9.4-9.4L608 82.7 608 64 224 64l0 18.7L374.6 233.4l9.4 9.4 0 13.3zm-32 0L192 96l0-32 0-32 32 0 384 0 32 0 0 32 0 32L480 256l0 184 0 40-32-24-96-72 0-128zM32 96l128 0 0 13.3 9.4 9.4 9.4 9.4L32 128l0 18.7L182.6 297.4l9.4 9.4 0 13.3 0 80 64 48 0-128 0-13.3 9.4-9.4L306.7 256 320 269.3l0 18.7-32 32 0 152 0 40-32-24-96-72 0-96L0 160l0-32L0 96l32 0z"/></svg>

<svg xmlns="http://www.w3.org/2000/svg" viewBox="0 0 640 512"><!--! Font Awesome Pro 6.4.0 by @fontawesome - https://fontawesome.com License - https://fontawesome.com/license (Commercial License) Copyright 2023 Fonticons, Inc. --><path d="M384 256V368l64 48V256 242.7l9.4-9.4L608 82.7V64H224V82.7L374.6 233.4l9.4 9.4V256zm-32 0L192 96V64 32h32H608h32V64 96L480 256V440v40l-32-24-96-72V256zM32 96H160v13.3l9.4 9.4 9.4 9.4H32v18.7L182.6 297.4l9.4 9.4V320v80l64 48V320 306.7l9.4-9.4L306.7 256 320 269.3V288l-32 32V472v40l-32-24-96-72V320L0 160V128 96H32z"/></svg>
